X: 3428
T: Best Of 17, The
R: reel
M: 4/4
K: Gmajor
|:G2 dG fgdB|AGdG fgdB|G2 dG fgdB|egdg egdB|
G2 dG fgdB|AGdG fgdB|G2 dG fgdB|egdg egdB:|
|:BGGd GGdB|GAAG Addc|BGGd GGdB|GAAG A2 dc|
[1 BGGd GGdB|GAAG Addc|dGeg dGBd|cAeg fdcA:|
[2 BGGd GGdG|GddG eGGf|gdeg dGBd|cedc Bfgd||

